X: 33
T: Mud on the Wheel
M:2/4
L:1/8
S:Viola "Mom" Ruth - Pioneer Western Folk Tunes (1948)
Z:AK/Fiddler's Companion
K:A
(AA) A,2|A,/E/C/E/ A,(E/F/)|=G/B/A/G/ E/D/E/F/|=G/B/A/G/ E2|
(AA) A,2|A,/E/C/E/ A,2|A/c/B/A/ G/A/B/G/|A2A2:|
|:[ce][ce] e/f/e/d/|c/d/e/f/ e2|G/A/B/c/ d/f/e/d/|c/B/c/d/ [c2e2]|
[ce][ce] e/f/e/d/|c/d/e/f/ e2|a/b/a/g/ e/c/A/F/|EA A2:|

%%sep 1 1 500
